X: 29021
T: Neckbelly
R: reel
M: 4/4
K: Fmajor
|:c3d ~c3d|cBAG AFAB|cFdF cFdF|cBAF GABd|
cBAB cBAB|cBAG AFAB|cf~f2 fcdf|1 cBAG F2AB:|2 cBAG F2gf||
|:ga~a2 a2ga|gfdc d2fg|fdcA ~c3d|cdfa gafg|
a2gf a2gf|gfdc ~d2fg|fdcA ~c3d|1 cdfg f2fg:|2 fdcA F4||
|:d4 d4|cAGA F2CF|DF~F2 FAcd|cdfg afga|
fd~d2 d2fd|cAGA F2CF|DF~F2 FAcd|1 cdfg f4:|2 cdfg f2AB||

